docs/img/svg/tg.svg

<svg width="24" height="24" viewBox="0 0 24 24" fill="none" xmlns="http://www.w3.org/2000/svg">
<rect x="4" y="6" width="16" height="13" fill="white"/>
<path d="M12 0C5.37097 0 0 5.37097 0 12C0 18.629 5.37097 24 12 24C18.629 24 24 18.629 24 12C24 5.37097 18.629 0 12 0ZM17.8935 8.22097L15.9242 17.5016C15.779 18.1597 15.3871 18.3194 14.8403 18.0097L11.8403 15.7984L10.3935 17.1919C10.2339 17.3516 10.0984 17.4871 9.78871 17.4871L10.0016 14.4339L15.5613 9.41129C15.8032 9.19839 15.5081 9.07742 15.1887 9.29032L8.31774 13.6161L5.35645 12.6919C4.7129 12.4887 4.69839 12.0484 5.49194 11.7387L17.0613 7.27742C17.5984 7.08387 18.0677 7.40806 17.8935 8.22097Z" fill="#31A8E0"/>
</svg>

<svg width="24" height="24" viewBox="0 0 24 24" fill="none" xmlns="http://www.w3.org/2000/svg"><path fill="#fff" d="M4 6h16v13H4z"/><path d="M12 0C5.371 0 0 5.371 0 12s5.371 12 12 12 12-5.371 12-12S18.629 0 12 0zm5.893 8.221l-1.969 9.28c-.145.659-.537.818-1.084.509l-3-2.212-1.447 1.394c-.16.16-.295.295-.604.295l.213-3.053 5.56-5.023c.241-.213-.054-.334-.373-.12l-6.871 4.325-2.962-.924c-.643-.203-.658-.644.136-.953l11.57-4.462c.536-.193 1.006.131.831.944z" fill="#31A8E0"/></svg>
